austria/municipalities/70224.svg

<?xml version="1.0" encoding="UTF-8"?>
<!DOCTYPE svg PUBLIC "-//W3C//DTD SVG 1.1//EN" "http://www.w3.org/Graphics/SVG/1.1/DTD/svg11.dtd">
<svg xmlns="http://www.w3.org/2000/svg" version="1.1" width="166px" height="192px" style="shape-rendering:geometricPrecision; text-rendering:geometricPrecision; image-rendering:optimizeQuality; fill-rule:evenodd; clip-rule:evenodd" xmlns:xlink="http://www.w3.org/1999/xlink">
<g><path style="opacity:1" fill="#000000" d="M -0.5,-0.5 C 54.8333,-0.5 110.167,-0.5 165.5,-0.5C 165.5,39.5 165.5,79.5 165.5,119.5C 161.89,140.883 151.89,158.716 135.5,173C 130.672,176.581 125.672,179.915 120.5,183C 112.336,186.554 104.002,189.388 95.5,191.5C 86.8333,191.5 78.1667,191.5 69.5,191.5C 30.064,182.064 6.73062,157.397 -0.5,117.5C -0.5,78.1667 -0.5,38.8333 -0.5,-0.5 Z"/></g>
<g><path style="opacity:1" fill="#003265" d="M 3.5,3.5 C 56.1667,3.5 108.833,3.5 161.5,3.5C 161.667,43.1681 161.5,82.8347 161,122.5C 153.444,155.722 133.278,176.888 100.5,186C 59.6306,192.648 29.464,177.815 10,141.5C 7.41718,135.003 5.41718,128.336 4,121.5C 3.50001,82.1681 3.33335,42.8347 3.5,3.5 Z"/></g>
<g><path style="opacity:1" fill="#000000" d="M 40.5,12.5 C 36.6897,11.976 34.6897,13.6426 34.5,17.5C 33.3754,15.623 33.7088,13.7897 35.5,12C 37.3869,11.2204 39.0536,11.3871 40.5,12.5 Z"/></g>
<g><path style="opacity:1" fill="#fe9900" d="M 40.5,12.5 C 39.2628,31.145 39.2628,49.8117 40.5,68.5C 40.5,72.1667 40.5,75.8333 40.5,79.5C 38.8333,79.5 37.1667,79.5 35.5,79.5C 36.5935,59.1839 36.7602,38.8506 36,18.5C 35.6174,17.944 35.1174,17.6107 34.5,17.5C 34.6897,13.6426 36.6897,11.976 40.5,12.5 Z"/></g>
<g><path style="opacity:1" fill="#000000" d="M 34.5,17.5 C 35.1174,17.6107 35.6174,17.944 36,18.5C 36.7602,38.8506 36.5935,59.1839 35.5,79.5C 37.1667,79.5 38.8333,79.5 40.5,79.5C 40.5,75.8333 40.5,72.1667 40.5,68.5C 41.4816,71.9619 41.815,75.6286 41.5,79.5C 44.8774,79.0679 47.8774,79.7345 50.5,81.5C 44.2026,80.6803 37.8692,80.347 31.5,80.5C 31.366,82.2915 31.6993,83.9582 32.5,85.5C 30.6921,84.0821 30.0254,82.0821 30.5,79.5C 31.8333,79.5 33.1667,79.5 34.5,79.5C 35.2942,58.7927 35.2942,38.1261 34.5,17.5 Z"/></g>
<g><path style="opacity:1" fill="#000000" d="M 137.5,30.5 C 136.167,31.8333 134.833,33.1667 133.5,34.5C 133.709,33.0783 134.209,31.745 135,30.5C 135.977,29.2264 136.811,29.2264 137.5,30.5 Z"/></g>
<g><path style="opacity:1" fill="#fe9900" d="M 137.5,30.5 C 139.344,34.1916 141.677,37.5249 144.5,40.5C 144.654,42.9699 145.654,44.9699 147.5,46.5C 147.66,48.153 148.326,49.4863 149.5,50.5C 149.259,52.8984 149.926,54.8984 151.5,56.5C 151.666,62.1764 151.499,67.8431 151,73.5C 149.558,75.3911 148.391,77.3911 147.5,79.5C 141.738,85.5956 136.738,92.2623 132.5,99.5C 130.016,101.8 128.016,104.467 126.5,107.5C 124.674,109.147 123.34,111.147 122.5,113.5C 120.469,114.539 119.136,116.205 118.5,118.5C 117.209,118.263 116.209,118.596 115.5,119.5C 110.523,119.581 105.857,120.581 101.5,122.5C 97.8776,122.322 94.5443,122.989 91.5,124.5C 87.8776,124.322 84.5443,124.989 81.5,126.5C 75.7495,127.021 70.0828,128.021 64.5,129.5C 63.5007,115.182 63.1674,100.849 63.5,86.5C 76.0113,86.8286 88.3446,86.4952 100.5,85.5C 102.822,84.1979 104.155,82.1979 104.5,79.5C 107.241,77.0246 109.241,74.0246 110.5,70.5C 112.95,68.3709 114.617,65.7043 115.5,62.5C 117.95,60.3709 119.617,57.7043 120.5,54.5C 123.66,50.8523 126.327,46.8523 128.5,42.5C 130.95,40.3709 132.617,37.7043 133.5,34.5C 134.833,33.1667 136.167,31.8333 137.5,30.5 Z"/></g>
<g><path style="opacity:1" fill="#000000" d="M 133.5,34.5 C 132.617,37.7043 130.95,40.3709 128.5,42.5C 129.383,39.2957 131.05,36.6291 133.5,34.5 Z"/></g>
<g><path style="opacity:1" fill="#000000" d="M 144.5,40.5 C 146.346,42.0301 147.346,44.0301 147.5,46.5C 145.654,44.9699 144.654,42.9699 144.5,40.5 Z"/></g>
<g><path style="opacity:1" fill="#000000" d="M 149.5,50.5 C 151.074,52.1016 151.741,54.1016 151.5,56.5C 149.926,54.8984 149.259,52.8984 149.5,50.5 Z"/></g>
<g><path style="opacity:1" fill="#000000" d="M 120.5,54.5 C 119.617,57.7043 117.95,60.3709 115.5,62.5C 116.383,59.2957 118.05,56.6291 120.5,54.5 Z"/></g>
<g><path style="opacity:1" fill="#000000" d="M 151.5,56.5 C 153.962,62.2979 154.129,68.2979 152,74.5C 150.951,76.6175 149.451,78.2842 147.5,79.5C 148.391,77.3911 149.558,75.3911 151,73.5C 151.499,67.8431 151.666,62.1764 151.5,56.5 Z"/></g>
<g><path style="opacity:1" fill="#000000" d="M 115.5,62.5 C 114.617,65.7043 112.95,68.3709 110.5,70.5C 111.169,67.1511 112.836,64.4844 115.5,62.5 Z"/></g>
<g><path style="opacity:1" fill="#000000" d="M 104.5,79.5 C 104.155,82.1979 102.822,84.1979 100.5,85.5C 100.845,82.8021 102.178,80.8021 104.5,79.5 Z"/></g>
<g><path style="opacity:1" fill="#fe9900" d="M 50.5,81.5 C 52.8003,83.984 55.4669,85.984 58.5,87.5C 59.6258,94.0859 59.7925,100.753 59,107.5C 57.3775,108.099 55.8775,108.766 54.5,109.5C 50.3065,110.032 46.3065,110.032 42.5,109.5C 44.1042,108.713 44.7709,107.38 44.5,105.5C 45.9663,104.653 46.7996,103.32 47,101.5C 47.6667,98.5 47.6667,95.5 47,92.5C 45.871,90.8588 44.371,89.8588 42.5,89.5C 39.3752,87.8737 36.0419,86.5403 32.5,85.5C 31.6993,83.9582 31.366,82.2915 31.5,80.5C 37.8692,80.347 44.2026,80.6803 50.5,81.5 Z"/></g>
<g><path style="opacity:1" fill="#000000" d="M 32.5,85.5 C 36.0419,86.5403 39.3752,87.8737 42.5,89.5C 37.1136,88.3389 31.7803,88.3389 26.5,89.5C 28.3052,87.8031 30.6385,86.9698 33.5,87C 32.944,86.6174 32.6107,86.1174 32.5,85.5 Z"/></g>
<g><path style="opacity:1" fill="#000000" d="M 100.5,85.5 C 88.3446,86.4952 76.0113,86.8286 63.5,86.5C 63.1674,100.849 63.5007,115.182 64.5,129.5C 70.0828,128.021 75.7495,127.021 81.5,126.5C 75.4472,128.592 69.1139,129.925 62.5,130.5C 62.5,115.5 62.5,100.5 62.5,85.5C 75.1667,85.5 87.8333,85.5 100.5,85.5 Z"/></g>
<g><path style="opacity:1" fill="#000000" d="M 58.5,87.5 C 60.4633,94.4238 61.1299,101.757 60.5,109.5C 58.5,109.5 56.5,109.5 54.5,109.5C 55.8775,108.766 57.3775,108.099 59,107.5C 59.7925,100.753 59.6258,94.0859 58.5,87.5 Z"/></g>
<g><path style="opacity:1" fill="#fe9900" d="M 42.5,89.5 C 43.4577,90.9616 44.6244,92.2949 46,93.5C 46.1667,94.6667 46.3333,95.8333 46.5,97C 45.9722,99.8813 45.3055,102.715 44.5,105.5C 43.3263,106.514 42.6596,107.847 42.5,109.5C 38.8131,111.343 34.8131,112.01 30.5,111.5C 29.5977,109.659 28.2644,108.326 26.5,107.5C 24.8171,102.337 24.1504,97.0036 24.5,91.5C 25.8333,91.5 26.5,90.8333 26.5,89.5C 31.7803,88.3389 37.1136,88.3389 42.5,89.5 Z"/></g>
<g><path style="opacity:1" fill="#000000" d="M 42.5,89.5 C 44.371,89.8588 45.871,90.8588 47,92.5C 47.6667,95.5 47.6667,98.5 47,101.5C 46.7996,103.32 45.9663,104.653 44.5,105.5C 45.3055,102.715 45.9722,99.8813 46.5,97C 46.3333,95.8333 46.1667,94.6667 46,93.5C 44.6244,92.2949 43.4577,90.9616 42.5,89.5 Z"/></g>
<g><path style="opacity:1" fill="#000000" d="M 24.5,91.5 C 24.1504,97.0036 24.8171,102.337 26.5,107.5C 22.3325,102.514 21.6658,97.1807 24.5,91.5 Z"/></g>
<g><path style="opacity:1" fill="#000000" d="M 132.5,99.5 C 131.471,102.891 129.471,105.557 126.5,107.5C 128.016,104.467 130.016,101.8 132.5,99.5 Z"/></g>
<g><path style="opacity:1" fill="#000000" d="M 44.5,105.5 C 44.7709,107.38 44.1042,108.713 42.5,109.5C 42.6596,107.847 43.3263,106.514 44.5,105.5 Z"/></g>
<g><path style="opacity:1" fill="#000000" d="M 42.5,109.5 C 46.3065,110.032 50.3065,110.032 54.5,109.5C 50.669,110.703 46.669,111.703 42.5,112.5C 41.7319,124.819 41.7319,137.152 42.5,149.5C 40.5203,137.545 39.8536,125.212 40.5,112.5C 37.4131,112.367 35.4131,113.7 34.5,116.5C 34.719,115.325 34.3857,114.325 33.5,113.5C 32.2613,113.058 31.2613,112.391 30.5,111.5C 34.8131,112.01 38.8131,111.343 42.5,109.5 Z"/></g>
<g><path style="opacity:1" fill="#fe9900" d="M 42.5,149.5 C 45.0194,153.124 45.0194,156.79 42.5,160.5C 34.2001,162.2 30.8668,158.867 32.5,150.5C 33.1174,150.389 33.6174,150.056 34,149.5C 34.4998,138.505 34.6665,127.505 34.5,116.5C 35.4131,113.7 37.4131,112.367 40.5,112.5C 39.8536,125.212 40.5203,137.545 42.5,149.5 Z"/></g>
<g><path style="opacity:1" fill="#000000" d="M 122.5,113.5 C 121.92,115.749 120.587,117.415 118.5,118.5C 119.136,116.205 120.469,114.539 122.5,113.5 Z"/></g>
<g><path style="opacity:1" fill="#000000" d="M 34.5,116.5 C 34.6665,127.505 34.4998,138.505 34,149.5C 33.6174,150.056 33.1174,150.389 32.5,150.5C 33.1256,139.038 33.7922,127.704 34.5,116.5 Z"/></g>
<g><path style="opacity:1" fill="#fefffe" d="M -0.5,117.5 C 6.73062,157.397 30.064,182.064 69.5,191.5C 46.1667,191.5 22.8333,191.5 -0.5,191.5C -0.5,166.833 -0.5,142.167 -0.5,117.5 Z"/></g>
<g><path style="opacity:1" fill="#000000" d="M 115.5,119.5 C 111.143,121.419 106.477,122.419 101.5,122.5C 105.857,120.581 110.523,119.581 115.5,119.5 Z"/></g>
<g><path style="opacity:1" fill="#fefffe" d="M 165.5,119.5 C 165.5,143.5 165.5,167.5 165.5,191.5C 142.167,191.5 118.833,191.5 95.5,191.5C 104.002,189.388 112.336,186.554 120.5,183C 125.672,179.915 130.672,176.581 135.5,173C 151.89,158.716 161.89,140.883 165.5,119.5 Z"/></g>
<g><path style="opacity:1" fill="#000000" d="M 101.5,122.5 C 98.4557,124.011 95.1224,124.678 91.5,124.5C 94.5443,122.989 97.8776,122.322 101.5,122.5 Z"/></g>
<g><path style="opacity:1" fill="#000000" d="M 91.5,124.5 C 88.4557,126.011 85.1224,126.678 81.5,126.5C 84.5443,124.989 87.8776,124.322 91.5,124.5 Z"/></g>
<g><path style="opacity:1" fill="#000000" d="M 32.5,150.5 C 30.8668,158.867 34.2001,162.2 42.5,160.5C 38.2254,163.416 34.3921,162.749 31,158.5C 30.8333,157.333 30.6667,156.167 30.5,155C 30.3068,152.992 30.9735,151.492 32.5,150.5 Z"/></g>
</svg>

<svg xmlns="http://www.w3.org/2000/svg" width="166" height="192" style="shape-rendering:geometricPrecision;text-rendering:geometricPrecision;image-rendering:optimizeQuality;fill-rule:evenodd;clip-rule:evenodd"><path style="opacity:1" d="M-.5-.5h166v120c-3.61 21.383-13.61 39.216-30 53.5a179.617 179.617 0 0 1-15 10 157.946 157.946 0 0 1-25 8.5h-26c-39.436-9.436-62.77-34.103-70-74V-.5z"/><path style="opacity:1" fill="#003265" d="M3.5 3.5h158c.167 39.668 0 79.335-.5 119-7.556 33.222-27.722 54.388-60.5 63.5-40.87 6.648-71.036-8.185-90.5-44.5a119.953 119.953 0 0 1-6-20c-.5-39.332-.667-78.665-.5-118z"/><path style="opacity:1" d="M40.5 12.5c-3.81-.524-5.81 1.143-6 5-1.125-1.877-.791-3.71 1-5.5 1.887-.78 3.554-.613 5 .5z"/><path style="opacity:1" fill="#fe9900" d="M40.5 12.5a422.923 422.923 0 0 0 0 56v11h-5a669.425 669.425 0 0 0 .5-61c-.383-.556-.883-.89-1.5-1 .19-3.857 2.19-5.524 6-5z"/><path style="opacity:1" d="M34.5 17.5c.617.11 1.117.444 1.5 1 .76 20.35.593 40.684-.5 61h5v-11c.982 3.462 1.315 7.129 1 11 3.377-.432 6.377.234 9 2a123.927 123.927 0 0 0-19-1c-.134 1.791.2 3.458 1 5-1.808-1.418-2.475-3.418-2-6h4a806.979 806.979 0 0 0 0-62zM137.5 30.5l-4 4a10.136 10.136 0 0 1 1.5-4c.977-1.274 1.811-1.274 2.5 0z"/><path style="opacity:1" fill="#fe9900" d="M137.5 30.5a41.176 41.176 0 0 0 7 10c.154 2.47 1.154 4.47 3 6 .16 1.653.826 2.986 2 4-.241 2.398.426 4.398 2 6a145.05 145.05 0 0 1-.5 17 27.568 27.568 0 0 0-3.5 6 109.75 109.75 0 0 0-15 20 27.68 27.68 0 0 0-6 8c-1.826 1.647-3.16 3.647-4 6-2.031 1.039-3.364 2.705-4 5-1.291-.237-2.291.096-3 1-4.977.081-9.643 1.081-14 3-3.622-.178-6.956.489-10 2-3.622-.178-6.956.489-10 2a102.318 102.318 0 0 0-17 3 463.122 463.122 0 0 1-1-43 342.839 342.839 0 0 0 37-1c2.322-1.302 3.655-3.302 4-6 2.741-2.475 4.741-5.475 6-9 2.45-2.13 4.117-4.796 5-8 2.45-2.13 4.117-4.796 5-8a57.43 57.43 0 0 0 8-12c2.45-2.13 4.117-4.796 5-8l4-4z"/><path style="opacity:1" d="M133.5 34.5c-.883 3.204-2.55 5.87-5 8 .883-3.204 2.55-5.87 5-8zM144.5 40.5c1.846 1.53 2.846 3.53 3 6-1.846-1.53-2.846-3.53-3-6zM149.5 50.5c1.574 1.602 2.241 3.602 2 6-1.574-1.602-2.241-3.602-2-6zM120.5 54.5c-.883 3.204-2.55 5.87-5 8 .883-3.204 2.55-5.87 5-8zM151.5 56.5c2.462 5.798 2.629 11.798.5 18-1.049 2.118-2.549 3.784-4.5 5a27.568 27.568 0 0 1 3.5-6 145.05 145.05 0 0 0 .5-17zM115.5 62.5c-.883 3.204-2.55 5.87-5 8 .669-3.349 2.336-6.016 5-8zM104.5 79.5c-.345 2.698-1.678 4.698-4 6 .345-2.698 1.678-4.698 4-6z"/><path style="opacity:1" fill="#fe9900" d="M50.5 81.5a27.683 27.683 0 0 0 8 6c1.126 6.586 1.292 13.253.5 20a36.287 36.287 0 0 0-4.5 2c-4.194.532-8.194.532-12 0 1.604-.787 2.27-2.12 2-4 1.466-.847 2.3-2.18 2.5-4 .667-3 .667-6 0-9-1.129-1.641-2.629-2.641-4.5-3a55.44 55.44 0 0 0-10-4c-.8-1.542-1.134-3.209-1-5 6.37-.153 12.703.18 19 1z"/><path style="opacity:1" d="M32.5 85.5a55.44 55.44 0 0 1 10 4c-5.386-1.161-10.72-1.161-16 0 1.805-1.697 4.139-2.53 7-2.5-.556-.383-.89-.883-1-1.5zM100.5 85.5a342.839 342.839 0 0 1-37 1c-.333 14.349 0 28.682 1 43a102.318 102.318 0 0 1 17-3c-6.053 2.092-12.386 3.425-19 4v-45h38zM58.5 87.5c1.963 6.924 2.63 14.257 2 22h-6a36.287 36.287 0 0 1 4.5-2c.792-6.747.626-13.414-.5-20z"/><path style="opacity:1" fill="#fe9900" d="M42.5 89.5a19.568 19.568 0 0 0 3.5 4l.5 3.5a86.986 86.986 0 0 1-2 8.5c-1.174 1.014-1.84 2.347-2 4-3.687 1.843-7.687 2.51-12 2-.902-1.841-2.236-3.174-4-4-1.683-5.163-2.35-10.496-2-16 1.333 0 2-.667 2-2 5.28-1.161 10.614-1.161 16 0z"/><path style="opacity:1" d="M42.5 89.5c1.871.359 3.371 1.359 4.5 3 .667 3 .667 6 0 9-.2 1.82-1.034 3.153-2.5 4a86.986 86.986 0 0 0 2-8.5l-.5-3.5a19.568 19.568 0 0 1-3.5-4zM24.5 91.5c-.35 5.504.317 10.837 2 16-4.168-4.986-4.834-10.32-2-16zM132.5 99.5c-1.029 3.391-3.029 6.057-6 8a27.68 27.68 0 0 1 6-8zM44.5 105.5c.27 1.88-.396 3.213-2 4 .16-1.653.826-2.986 2-4zM42.5 109.5c3.806.532 7.806.532 12 0a107.244 107.244 0 0 1-12 3 297.341 297.341 0 0 0 0 37c-1.98-11.955-2.646-24.288-2-37-3.087-.133-5.087 1.2-6 4 .219-1.175-.114-2.175-1-3-1.239-.442-2.239-1.109-3-2 4.313.51 8.313-.157 12-2z"/><path style="opacity:1" fill="#fe9900" d="M42.5 149.5c2.52 3.624 2.52 7.29 0 11-8.3 1.7-11.633-1.633-10-10 .617-.111 1.117-.444 1.5-1 .5-10.995.666-21.995.5-33 .913-2.8 2.913-4.133 6-4-.646 12.712.02 25.045 2 37z"/><path style="opacity:1" d="M122.5 113.5c-.58 2.249-1.913 3.915-4 5 .636-2.295 1.969-3.961 4-5zM34.5 116.5c.166 11.005 0 22.005-.5 33-.383.556-.883.889-1.5 1a3977.602 3977.602 0 0 1 2-34z"/><path style="opacity:1" fill="#fefffe" d="M-.5 117.5c7.23 39.897 30.564 64.564 70 74h-70v-74z"/><path style="opacity:1" d="M115.5 119.5c-4.357 1.919-9.023 2.919-14 3 4.357-1.919 9.023-2.919 14-3z"/><path style="opacity:1" fill="#fefffe" d="M165.5 119.5v72h-70a157.946 157.946 0 0 0 25-8.5 179.617 179.617 0 0 0 15-10c16.39-14.284 26.39-32.117 30-53.5z"/><path style="opacity:1" d="M101.5 122.5c-3.044 1.511-6.378 2.178-10 2 3.044-1.511 6.378-2.178 10-2zM91.5 124.5c-3.044 1.511-6.378 2.178-10 2 3.044-1.511 6.378-2.178 10-2zM32.5 150.5c-1.633 8.367 1.7 11.7 10 10-4.275 2.916-8.108 2.249-11.5-2l-.5-3.5c-.193-2.008.474-3.508 2-4.5z"/></svg>
